static/img/device/component-wall-bracket-xpd2-mdb.svg

<svg width="67" height="180" viewBox="0 0 67 180" fill="none" xmlns="http://www.w3.org/2000/svg">
<path d="M67 0H0V180H67V0Z" fill="white"/>
<path d="M14.1645 9.83844L9.68213 14.9779" stroke="black" stroke-width="0.5" stroke-linecap="round" stroke-linejoin="round"/>
<path d="M48.4712 167.267H39.1243" stroke="black" stroke-width="0.5" stroke-linecap="round" stroke-linejoin="round"/>
<path d="M27.607 167.267H18.26" stroke="black" stroke-width="0.5" stroke-linecap="round" stroke-linejoin="round"/>
<path d="M8.02124 157.5H10.5786" stroke="black" stroke-width="0.5" stroke-linecap="round" stroke-linejoin="round"/>
<path d="M56.1528 157.5H58.7102" stroke="black" stroke-width="0.5" stroke-linecap="round" stroke-linejoin="round"/>
<path d="M8.02124 156.216H9.55469" stroke="#808080" stroke-width="0.5" stroke-linecap="round" stroke-linejoin="round"/>
<path d="M57.1765 156.216H58.71" stroke="#808080" stroke-width="0.5" stroke-linecap="round" stroke-linejoin="round"/>
<path d="M10.5786 157.5L15.061 162.639" stroke="black" stroke-width="0.5" stroke-linecap="round" stroke-linejoin="round"/>
<path d="M38.4873 143.299H28.2439" stroke="black" stroke-width="0.5" stroke-linecap="round" stroke-linejoin="round"/>
<path d="M28.2439 137.515H38.4873" stroke="black" stroke-width="0.5" stroke-linecap="round" stroke-linejoin="round"/>
<path d="M50.3916 129.87H16.3396" stroke="black" stroke-width="0.5" stroke-linecap="round" stroke-linejoin="round"/>
<path d="M12.8857 126.398V74.2216" stroke="black" stroke-width="0.5" stroke-linecap="round" stroke-linejoin="round"/>
<path d="M14.1646 9.83843V5.21054" stroke="black" stroke-width="0.5" stroke-linecap="round" stroke-linejoin="round"/>
<path d="M15.061 162.639V164.056" stroke="black" stroke-width="0.5" stroke-linecap="round" stroke-linejoin="round"/>
<path d="M15.4431 5.21054V6.62212" stroke="#808080" stroke-width="0.5" stroke-linecap="round" stroke-linejoin="round"/>
<path d="M18.1326 6.62213V8.42213" stroke="black" stroke-width="0.5" stroke-linecap="round" stroke-linejoin="round"/>
<path d="M27.6069 174.979V167.267" stroke="black" stroke-width="0.5" stroke-linecap="round" stroke-linejoin="round"/>
<path d="M28.2439 8.42213V6.62213" stroke="black" stroke-width="0.5" stroke-linecap="round" stroke-linejoin="round"/>
<path d="M29.5273 174.979V173.563" stroke="#808080" stroke-width="0.5" stroke-linecap="round" stroke-linejoin="round"/>
<path d="M30.4851 38.2358V27.9568" stroke="black" stroke-width="0.5" stroke-linecap="round" stroke-linejoin="round"/>
<path d="M36.2461 27.9568V38.2358" stroke="black" stroke-width="0.5" stroke-linecap="round" stroke-linejoin="round"/>
<path d="M38.4873 6.62213V8.42213" stroke="black" stroke-width="0.5" stroke-linecap="round" stroke-linejoin="round"/>
<path d="M39.1243 174.979V167.267" stroke="black" stroke-width="0.5" stroke-linecap="round" stroke-linejoin="round"/>
<path d="M44.8855 66.2542V59.059" stroke="#808080" stroke-width="0.5" stroke-linecap="round" stroke-linejoin="round"/>
<path d="M46.8057 59.059V66.2542" stroke="#808080" stroke-width="0.5" stroke-linecap="round" stroke-linejoin="round"/>
<path d="M48.5986 8.42213V6.62213" stroke="black" stroke-width="0.5" stroke-linecap="round" stroke-linejoin="round"/>
<path d="M50.6465 66.2542V59.059" stroke="#808080" stroke-width="0.5" stroke-linecap="round" stroke-linejoin="round"/>
<path d="M51.2881 6.62212V5.21054" stroke="#808080" stroke-width="0.5" stroke-linecap="round" stroke-linejoin="round"/>
<path d="M51.6704 164.056V162.639" stroke="black" stroke-width="0.5" stroke-linecap="round" stroke-linejoin="round"/>
<path d="M52.5669 59.059V66.2542" stroke="#808080" stroke-width="0.5" stroke-linecap="round" stroke-linejoin="round"/>
<path d="M52.5669 9.83843V5.21054" stroke="black" stroke-width="0.5" stroke-linecap="round" stroke-linejoin="round"/>
<path d="M53.8455 74.2216V126.398" stroke="black" stroke-width="0.5" stroke-linecap="round" stroke-linejoin="round"/>
<path d="M16.3396 70.7542H50.3916" stroke="black" stroke-width="0.5" stroke-linecap="round" stroke-linejoin="round"/>
<path d="M51.6704 67.1542H51.543" stroke="#808080" stroke-width="0.5" stroke-linecap="round" stroke-linejoin="round"/>
<path d="M45.9094 67.1542H45.782" stroke="#808080" stroke-width="0.5" stroke-linecap="round" stroke-linejoin="round"/>
<path d="M50.8306 66.8037H46.6218" stroke="#808080" stroke-width="0.5" stroke-linecap="round" stroke-linejoin="round"/>
<path d="M50.6511 66.3205H46.8057" stroke="#808080" stroke-width="0.5" stroke-linecap="round" stroke-linejoin="round"/>
<path d="M50.6464 64.4258H46.8057" stroke="#808080" stroke-width="0.5" stroke-linecap="round" stroke-linejoin="round"/>
<path d="M50.6464 62.8816H46.8057" stroke="#808080" stroke-width="0.5" stroke-linecap="round" stroke-linejoin="round"/>
<path d="M50.6464 62.4316H46.8057" stroke="#808080" stroke-width="0.5" stroke-linecap="round" stroke-linejoin="round"/>
<path d="M50.6464 60.8826H46.8057" stroke="#808080" stroke-width="0.5" stroke-linecap="round" stroke-linejoin="round"/>
<path d="M46.8057 58.9926H50.6511" stroke="#808080" stroke-width="0.5" stroke-linecap="round" stroke-linejoin="round"/>
<path d="M46.6218 58.5095H50.8306" stroke="#808080" stroke-width="0.5" stroke-linecap="round" stroke-linejoin="round"/>
<path d="M45.782 58.159H45.9094" stroke="#808080" stroke-width="0.5" stroke-linecap="round" stroke-linejoin="round"/>
<path d="M51.543 58.159H51.6704" stroke="#808080" stroke-width="0.5" stroke-linecap="round" stroke-linejoin="round"/>
<path d="M51.6704 162.639L56.1528 157.5" stroke="black" stroke-width="0.5" stroke-linecap="round" stroke-linejoin="round"/>
<path d="M57.0493 14.9779L52.5669 9.83844" stroke="black" stroke-width="0.5" stroke-linecap="round" stroke-linejoin="round"/>
<path d="M58.71 16.2616H57.1765" stroke="#808080" stroke-width="0.5" stroke-linecap="round" stroke-linejoin="round"/>
<path d="M9.55469 16.2616H8.02124" stroke="#808080" stroke-width="0.5" stroke-linecap="round" stroke-linejoin="round"/>
<path d="M8.02124 14.9779H9.68209" stroke="black" stroke-width="0.5" stroke-linecap="round" stroke-linejoin="round"/>
<path d="M57.0493 14.9779H58.7102" stroke="black" stroke-width="0.5" stroke-linecap="round" stroke-linejoin="round"/>
<path d="M48.5987 8.42212H38.4873" stroke="black" stroke-width="0.5" stroke-linecap="round" stroke-linejoin="round"/>
<path d="M28.2439 8.42212H18.1326" stroke="black" stroke-width="0.5" stroke-linecap="round" stroke-linejoin="round"/>
<path d="M14.1646 6.75H18.1327" stroke="black" stroke-width="0.5" stroke-linecap="round" stroke-linejoin="round"/>
<path d="M28.2439 6.75H38.4873" stroke="black" stroke-width="0.5" stroke-linecap="round" stroke-linejoin="round"/>
<path d="M48.5986 6.75H52.5667" stroke="black" stroke-width="0.5" stroke-linecap="round" stroke-linejoin="round"/>
<path d="M52.5669 6.62213H14.1646" stroke="black" stroke-width="0.5" stroke-linecap="round" stroke-linejoin="round"/>
<path d="M14.1646 5.21054H52.5669" stroke="black" stroke-width="0.5" stroke-linecap="round" stroke-linejoin="round"/>
<path d="M50.3916 129.87C52.3025 129.87 53.8501 128.316 53.8501 126.398" stroke="black" stroke-width="0.5" stroke-linecap="round" stroke-linejoin="round"/>
<path d="M12.8857 126.398C12.8857 128.316 14.4333 129.87 16.3443 129.87" stroke="black" stroke-width="0.5" stroke-linecap="round" stroke-linejoin="round"/>
<path d="M16.3396 70.7542C14.4287 70.7542 12.8811 72.3079 12.8811 74.2263" stroke="black" stroke-width="0.5" stroke-linecap="round" stroke-linejoin="round"/>
<path d="M53.8455 74.2216C53.8455 72.3032 52.2979 70.7495 50.387 70.7495" stroke="black" stroke-width="0.5" stroke-linecap="round" stroke-linejoin="round"/>
<path d="M48.4712 167.267C50.2406 167.267 51.6702 165.827 51.6702 164.056" stroke="black" stroke-width="0.5" stroke-linecap="round" stroke-linejoin="round"/>
<path d="M15.061 164.056C15.061 165.832 16.4954 167.267 18.26 167.267" stroke="black" stroke-width="0.5" stroke-linecap="round" stroke-linejoin="round"/>
<path d="M30.4851 38.2358C30.4851 39.8321 31.7732 41.1253 33.3633 41.1253C34.9533 41.1253 36.2415 39.8321 36.2415 38.2358" stroke="black" stroke-width="0.5" stroke-linecap="round" stroke-linejoin="round"/>
<path d="M36.2461 27.9569C36.2461 26.3605 34.958 25.0674 33.3679 25.0674C31.7778 25.0674 30.4897 26.3605 30.4897 27.9569" stroke="black" stroke-width="0.5" stroke-linecap="round" stroke-linejoin="round"/>
<path d="M38.4873 143.299C40.0774 143.299 41.3655 142.006 41.3655 140.409C41.3655 138.813 40.0774 137.52 38.4873 137.52" stroke="black" stroke-width="0.5" stroke-linecap="round" stroke-linejoin="round"/>
<path d="M28.2439 137.515C26.6538 137.515 25.3657 138.808 25.3657 140.405C25.3657 142.001 26.6538 143.294 28.2439 143.294" stroke="black" stroke-width="0.5" stroke-linecap="round" stroke-linejoin="round"/>
<path d="M52.5669 59.059C52.5669 58.5616 52.1658 58.159 51.6704 58.159" stroke="#808080" stroke-width="0.5" stroke-linecap="round" stroke-linejoin="round"/>
<path d="M51.543 58.159C51.0475 58.159 50.6465 58.5616 50.6465 59.059" stroke="#808080" stroke-width="0.5" stroke-linecap="round" stroke-linejoin="round"/>
<path d="M46.8057 59.059C46.8057 58.5616 46.4046 58.159 45.9092 58.159" stroke="#808080" stroke-width="0.5" stroke-linecap="round" stroke-linejoin="round"/>
<path d="M45.782 58.159C45.2866 58.159 44.8855 58.5616 44.8855 59.059" stroke="#808080" stroke-width="0.5" stroke-linecap="round" stroke-linejoin="round"/>
<path d="M51.6704 67.1542C52.1658 67.1542 52.5669 66.7516 52.5669 66.2542" stroke="#808080" stroke-width="0.5" stroke-linecap="round" stroke-linejoin="round"/>
<path d="M50.6465 66.2542C50.6465 66.7516 51.0475 67.1542 51.543 67.1542" stroke="#808080" stroke-width="0.5" stroke-linecap="round" stroke-linejoin="round"/>
<path d="M45.9092 67.1542C46.4046 67.1542 46.8057 66.7516 46.8057 66.2542" stroke="#808080" stroke-width="0.5" stroke-linecap="round" stroke-linejoin="round"/>
<path d="M44.8855 66.2542C44.8855 66.7516 45.2866 67.1542 45.782 67.1542" stroke="#808080" stroke-width="0.5" stroke-linecap="round" stroke-linejoin="round"/>
<path d="M37.2041 174.979V173.563" stroke="#808080" stroke-width="0.5" stroke-linecap="round" stroke-linejoin="round"/>
<path d="M27.6069 173.563H39.1243" stroke="black" stroke-width="0.5" stroke-linecap="round" stroke-linejoin="round"/>
<path d="M39.1243 173.435H27.6069" stroke="black" stroke-width="0.5" stroke-linecap="round" stroke-linejoin="round"/>
<path d="M39.1243 174.979H27.6069" stroke="black" stroke-width="0.5" stroke-linecap="round" stroke-linejoin="round"/>
<path d="M9.68213 157.5V14.9779" stroke="black" stroke-width="0.25" stroke-linecap="round" stroke-linejoin="round"/>
<path d="M9.55469 157.5V14.9779" stroke="black" stroke-width="0.25" stroke-linecap="round" stroke-linejoin="round"/>
<path d="M8.02124 157.5V14.9779" stroke="black" stroke-width="0.5" stroke-linecap="round" stroke-linejoin="round"/>
<path d="M58.71 14.9779V157.5" stroke="black" stroke-width="0.5" stroke-linecap="round" stroke-linejoin="round"/>
<path d="M57.0493 14.9779V157.5" stroke="black" stroke-width="0.25" stroke-linecap="round" stroke-linejoin="round"/>
<path d="M57.1765 157.5V14.9779" stroke="black" stroke-width="0.25" stroke-linecap="round" stroke-linejoin="round"/>
<path d="M14.1645 9.83844L9.68213 14.9779" stroke="black" stroke-linecap="round" stroke-linejoin="round"/>
<path d="M48.4712 167.267H39.1243" stroke="black" stroke-linecap="round" stroke-linejoin="round"/>
<path d="M27.607 167.267H18.26" stroke="black" stroke-linecap="round" stroke-linejoin="round"/>
<path d="M8.02124 157.5H10.5786" stroke="black" stroke-linecap="round" stroke-linejoin="round"/>
<path d="M56.1528 157.5H58.7102" stroke="black" stroke-linecap="round" stroke-linejoin="round"/>
<path d="M10.5786 157.5L15.061 162.639" stroke="black" stroke-linecap="round" stroke-linejoin="round"/>
<path d="M14.1646 9.83843V5.21054" stroke="black" stroke-linecap="round" stroke-linejoin="round"/>
<path d="M15.061 162.639V164.056" stroke="black" stroke-linecap="round" stroke-linejoin="round"/>
<path d="M27.6069 174.979V167.267" stroke="black" stroke-linecap="round" stroke-linejoin="round"/>
<path d="M39.1243 174.979V167.267" stroke="black" stroke-linecap="round" stroke-linejoin="round"/>
<path d="M51.6704 164.056V162.639" stroke="black" stroke-linecap="round" stroke-linejoin="round"/>
<path d="M52.5669 9.83843V5.21054" stroke="black" stroke-linecap="round" stroke-linejoin="round"/>
<path d="M51.6704 162.639L56.1528 157.5" stroke="black" stroke-linecap="round" stroke-linejoin="round"/>
<path d="M57.0493 14.9779L52.5669 9.83844" stroke="black" stroke-linecap="round" stroke-linejoin="round"/>
<path d="M8.02124 14.9779H9.68209" stroke="black" stroke-linecap="round" stroke-linejoin="round"/>
<path d="M57.0493 14.9779H58.7102" stroke="black" stroke-linecap="round" stroke-linejoin="round"/>
<path d="M14.1646 5.21054H52.5669" stroke="black" stroke-linecap="round" stroke-linejoin="round"/>
<path d="M48.4712 167.267C50.2406 167.267 51.6702 165.827 51.6702 164.056" stroke="black" stroke-linecap="round" stroke-linejoin="round"/>
<path d="M15.061 164.056C15.061 165.832 16.4954 167.267 18.26 167.267" stroke="black" stroke-linecap="round" stroke-linejoin="round"/>
<path d="M39.1243 174.979H27.6069" stroke="black" stroke-linecap="round" stroke-linejoin="round"/>
<path d="M8.02124 157.5V14.9779" stroke="black" stroke-linecap="round" stroke-linejoin="round"/>
<path d="M58.71 14.9779V157.5" stroke="black" stroke-linecap="round" stroke-linejoin="round"/>
</svg>

<svg xmlns="http://www.w3.org/2000/svg" width="67" height="180" fill="none" viewBox="0 0 67 180"><path fill="#fff" d="M67 0H0v180h67z"/><path stroke="#000" stroke-linecap="round" stroke-linejoin="round" stroke-width=".5" d="m14.165 9.838-4.483 5.14M48.471 167.267h-9.347M27.607 167.267H18.26M8.021 157.5h2.558M56.153 157.5h2.557"/><path stroke="gray" stroke-linecap="round" stroke-linejoin="round" stroke-width=".5" d="M8.021 156.216h1.534M57.177 156.216h1.533"/><path stroke="#000" stroke-linecap="round" stroke-linejoin="round" stroke-width=".5" d="m10.579 157.5 4.482 5.139M38.487 143.299H28.244M28.244 137.515h10.243M50.392 129.87H16.34M12.886 126.398V74.222M14.165 9.838V5.211M15.061 162.639v1.417"/><path stroke="gray" stroke-linecap="round" stroke-linejoin="round" stroke-width=".5" d="M15.443 5.21v1.412"/><path stroke="#000" stroke-linecap="round" stroke-linejoin="round" stroke-width=".5" d="M18.133 6.622v1.8M27.607 174.979v-7.712M28.244 8.422v-1.8"/><path stroke="gray" stroke-linecap="round" stroke-linejoin="round" stroke-width=".5" d="M29.527 174.979v-1.416"/><path stroke="#000" stroke-linecap="round" stroke-linejoin="round" stroke-width=".5" d="M30.485 38.236v-10.28M36.246 27.957v10.279M38.487 6.622v1.8M39.124 174.979v-7.712"/><path stroke="gray" stroke-linecap="round" stroke-linejoin="round" stroke-width=".5" d="M44.886 66.254V59.06M46.806 59.059v7.195"/><path stroke="#000" stroke-linecap="round" stroke-linejoin="round" stroke-width=".5" d="M48.599 8.422v-1.8"/><path stroke="gray" stroke-linecap="round" stroke-linejoin="round" stroke-width=".5" d="M50.647 66.254V59.06M51.288 6.622V5.211"/><path stroke="#000" stroke-linecap="round" stroke-linejoin="round" stroke-width=".5" d="M51.67 164.056v-1.417"/><path stroke="gray" stroke-linecap="round" stroke-linejoin="round" stroke-width=".5" d="M52.567 59.059v7.195"/><path stroke="#000" stroke-linecap="round" stroke-linejoin="round" stroke-width=".5" d="M52.567 9.838V5.211M53.846 74.222v52.176M16.34 70.754h34.052"/><path stroke="gray" stroke-linecap="round" stroke-linejoin="round" stroke-width=".5" d="M51.67 67.154h-.127M45.91 67.154h-.128M50.83 66.804h-4.208M50.651 66.32h-3.845M50.646 64.426h-3.84M50.646 62.882h-3.84M50.646 62.432h-3.84M50.646 60.883h-3.84M46.806 58.993h3.845M46.622 58.51h4.209M45.782 58.159h.127M51.543 58.159h.127"/><path stroke="#000" stroke-linecap="round" stroke-linejoin="round" stroke-width=".5" d="m51.67 162.639 4.483-5.139M57.05 14.978l-4.483-5.14"/><path stroke="gray" stroke-linecap="round" stroke-linejoin="round" stroke-width=".5" d="M58.71 16.262h-1.534M9.555 16.262H8.02"/><path stroke="#000" stroke-linecap="round" stroke-linejoin="round" stroke-width=".5" d="M8.021 14.978h1.661M57.05 14.978h1.66M48.599 8.422H38.487M28.244 8.422H18.133M14.165 6.75h3.968M28.244 6.75h10.243M48.599 6.75h3.968M52.567 6.622H14.165M14.165 5.21h38.402M50.392 129.87a3.464 3.464 0 0 0 3.458-3.472M12.886 126.398a3.464 3.464 0 0 0 3.458 3.472M16.34 70.754a3.464 3.464 0 0 0-3.459 3.472M53.846 74.222a3.464 3.464 0 0 0-3.459-3.472M48.471 167.267c1.77 0 3.2-1.44 3.2-3.211M15.061 164.056a3.205 3.205 0 0 0 3.199 3.211M30.485 38.236a2.883 2.883 0 0 0 2.878 2.89 2.883 2.883 0 0 0 2.879-2.89M36.246 27.957a2.883 2.883 0 0 0-2.878-2.89 2.883 2.883 0 0 0-2.878 2.89M38.487 143.299a2.883 2.883 0 0 0 2.878-2.89 2.883 2.883 0 0 0-2.878-2.889M28.244 137.515a2.883 2.883 0 0 0-2.878 2.89 2.883 2.883 0 0 0 2.878 2.889"/><path stroke="gray" stroke-linecap="round" stroke-linejoin="round" stroke-width=".5" d="M52.567 59.059c0-.497-.401-.9-.897-.9M51.543 58.159a.9.9 0 0 0-.896.9M46.806 59.059c0-.497-.401-.9-.897-.9M45.782 58.159a.9.9 0 0 0-.896.9M51.67 67.154a.9.9 0 0 0 .897-.9M50.647 66.254c0 .498.4.9.896.9M45.91 67.154a.9.9 0 0 0 .896-.9M44.886 66.254c0 .498.4.9.896.9M37.204 174.979v-1.416"/><path stroke="#000" stroke-linecap="round" stroke-linejoin="round" stroke-width=".5" d="M27.607 173.563h11.517M39.124 173.435H27.607M39.124 174.979H27.607"/><path stroke="#000" stroke-linecap="round" stroke-linejoin="round" stroke-width=".25" d="M9.682 157.5V14.978M9.555 157.5V14.978"/><path stroke="#000" stroke-linecap="round" stroke-linejoin="round" stroke-width=".5" d="M8.021 157.5V14.978M58.71 14.978V157.5"/><path stroke="#000" stroke-linecap="round" stroke-linejoin="round" stroke-width=".25" d="M57.05 14.978V157.5M57.177 157.5V14.978"/><path stroke="#000" stroke-linecap="round" stroke-linejoin="round" d="m14.165 9.838-4.483 5.14M48.471 167.267h-9.347M27.607 167.267H18.26M8.021 157.5h2.558M56.153 157.5h2.557M10.579 157.5l4.482 5.139M14.165 9.838V5.211M15.061 162.639v1.417M27.607 174.979v-7.712M39.124 174.979v-7.712M51.67 164.056v-1.417M52.567 9.838V5.211M51.67 162.639l4.483-5.139M57.05 14.978l-4.483-5.14M8.021 14.978h1.661M57.05 14.978h1.66M14.165 5.21h38.402M48.471 167.267c1.77 0 3.2-1.44 3.2-3.211M15.061 164.056a3.205 3.205 0 0 0 3.199 3.211M39.124 174.979H27.607M8.021 157.5V14.978M58.71 14.978V157.5"/></svg>
